X:116
T:Barber Of Seville,The,aka. JBs.116
T:Quick Step. JBs.116
S:Jas.Blackshaw MS, 1837, N.Shropshire
A:North Shropshire
Z:T. Weatherall 2006
M:2/4
L:1/16
Q:1/4=100
R:Country Dance
K:C
câ€™2|g2e2f2a2|gfed c2de|f2e2d2e2|gag^f g2câ€™2|
g2e2f2a2|gfed c2de|d2ef G2AB|â€fineâ€c6||
ge|câ€™2ge câ€™2ge|câ€™2câ€™câ€™ câ€™2g2|câ€™bag fedc|câ€™2câ€™câ€™ câ€™2g2|
câ€™2ge câ€™2ge|câ€™2câ€™câ€™ câ€™2g2|câ€™bag fedc|g2gg g2 |]

